X: 14792
T: Gander In The Pratie Hole, The
R: jig
M: 6/8
K: Dmajor
|:FAD FAD|GFG EFG|F/G/AD F/G/AD|GED D3|
FAD FAD|GFG EFG|g/f/ed ecA|GED D3:|
|:Add ded|cAB =cAG|Add ded|^cAB =c2 B|
Add ded|^cAB =cde|g/f/ed ecA|GED D3:|

